X:1
T:Whither away, so fast - Morley
T:#
%%score [ 1 2 3 ]
L:1/8
Q:1/4=108
M:2/2
K:Bb
V:1 treble nm="Soprano"
V:2 treble nm="Alto"
V:3 treble-8 nm="Tenor"
V:1
"^Whither away, so fast" z8 |!f! f4 =efge | f2 d2 c2 e2 | d2 A2"^Thomas Morley \n(1557-1603)" B4 | %4
w: |Whi- ther a- way, so|fast, so fast, tell|me my dear-|
[M:2/2] A2 F4 G2 | F2!mp! f2 =efge | f2 f2 c4- | c2 =B2 c3 _B | A2 d4 cB | AB c2 GABc | %10
w: est dear dar-|ling? Whi- ther a- way, so|fast a- lone,|* so fast a-|way? Whi- ther a-|way, so fast From me, your true|
 d2 c4 (BA) | G2 (AB) (c2 G2) | A2 A2 G4 | F2!mf! f2 =ef (ge) | f2 d2 cdec | d2 c2 c2 =B2 | %16
w: love, your true *|love ap\- * prov\- *|ed, ap- prov-|ed? What haste, I say,~what *|haste, I say, what haste, I|say, mine own best|
 c2 G2 A=B c2 | _B2 AB (c2 G2) | A8 | z8 | z8 |!f! f2 ed c2 d2 | e2 dc BABc | dcde f2 ed | %24
w: dar- ling dear be- lov-|ed, dear be- lov\- *|ed?|||Then lo, I come! dis-|patch thee! I come, I come, I|come, I come, I come, lo, I|
 c3 B A2 GF | =E2 CD EFGA | B2 B,C DEFG | AB c2 CDEF | G2 AB (c2 G2) | A4 z2!mf! F2 | F2 D2 E>FED | %31
w: come! dis- patch thee! I|come! Hence I say, a- way, a-|way, hence a- way, a- way, a-|way, a- way, or I catch, I|catch, or I catch *|thee. Think,|think not thus a- way to|
 C4 DE F2 | =E2 (F4 E2) | F2 f2 f2 d2 | e>fed c2 f2 | (de f4 =e2) | f8 | z2!p! c2 c2 A2 | %38
w: 'scape all a- lone|with- out *|me, no, think not|thus a- way to 'scape with-|out * * *|me,|no, think not,|
 B>cBA G2 d2 | c2 e2 (d3 c) | =B4 z2!f! d2 | c2 c2 B4- | B2 A2 (A2 GF | G8) | A2!mf! F2 A2 F2 | %45
w: thus a- way to 'scape, to|'scape with- out *|me. But|run! You need|* not doubt * *||me. What now! What!|
 c4 F2 B2- | B2 A2 B4 | A4 G4 | (A3 GAB c2- | c2 =BA B4) | c4 z2!mp! G2 | B2 B2 F3 G | A3 B c2 c2 | %53
w: faint you? Of|* your sweet|feet for-|sak\- * * * *||en? O|well I see you|mean to mock me.|
 G3 A B2 c2 |"^cresc." d2 c2 (c2 =B2) | c2!f! c3 d e2 | e2 B3 c d2 | d2 A3 B c2 | c2 G3 A B2- | %59
w: Run, I say, or|else I catch *|you. What? You halt?|O do you so?|A- lack the while!|what! are you down?|
 B2 AG F2 G2 | A2 B2 (c4- | c4 G4) | A4 z2!mf! F2 | A2 F2 c4 | F2 B4 A2 | B2 d2 c2 B2 | %66
w: * Pret- ty maid, well|o- ver- tak\-||en! What|now! What! faint|you? Of your|sweet, of your sweet|
 BA (AG/F/ G4) | A3!p! G (AB c2- | c2 =BA B4) | c4 z2!mp! G2 | B2 B2 F3 G | A3 B c2 c2 | %72
w: feet for- sak\- * * *|en, for- sak\- * *||en? O|well I see you|mean to mock me,|
 G3 A B2 c2 |"^cresc." d2 c2 (c2 =B2) | c2 c3 d e2 | e2 B3 c d2 | d2 A3 B c2 | %77
w: Run, I say, or|else I catch *|you. What? You halt?|O do you so?|A- lack the while!|
 c2 G3 A[Q:1/4=107] B2- |[Q:1/4=105] B2[Q:1/4=104] A[Q:1/4=103]G[Q:1/4=102] F2[Q:1/4=101] G2 | %79
w: what! are you down?|* Pret- ty maid well|
[Q:1/4=99] A2[Q:1/4=98] B2[Q:1/4=96] (c4- |[Q:1/4=93] c4[Q:1/4=91] G4) |[Q:1/4=90] !fermata!A8 |] %82
w: o- ver- tak\-||en.|
V:2
!f! B4 ABcA | B2 F2 G2 G2 | F8 | z2"^\" F2 =EFGE |[M:2/2] F2 D2 C2 E2 | D2!mp! A2 GABG | A4 G4 | %7
w: Whi- ther a- way, so|fast, tell me my|dear?|Whi- ther a- way, so|fast, my dear, my|dear? Whi- ther a- way, so|fast, tell|
 A2 F2 =EFGE | F4 FGAB | c2 CD EFGA | B2 A4 GF | =E2 F4 (E2 | F4) C4 | z2!mf! F2 G4 | A2 B2 ABcA | %15
w: me? Whi- ther a- way, so|fast? Tell me, ah, my|dear, whi- ther now a- way so|fast From your true|love ap- prov\-|* ed?|O say|sweet, what haste a- way, what|
 B2 A2 G3 F | =E4 C4 | DE (F4 =E2) | F4 z4 |!f! c2 BA G2 A2 | B2 A2 G (F G2) | A8 | c2 BA G2 A2 | %23
w: haste? Tell me, my|dar- ling|dear be- lov\- *|ed.|Then will we try Who|best runs, thou or *|I.|Now, now I come! dis-|
 B2 AG F=EFG | AGAB c2 BA | G4 CDEF | GA B2 B,CDE | FGAB c4 | C8 | z2!mf! c2 c2 A2 | B>cBA G4- | %31
w: patch thee! I come, I come, I|come, a- way, a- way, lo, I|come! Hence a- way, I|come,~ I come, haste thee hence a-|way, or else I catch|thee.|Think, think not|thus a- way to 'scape,|
 G2 c2 B2 F2 | G2 A2 B4 | A2 A2 B4 | G2 c2 c2 A2 | B>cBA GF G2 | A6!p! F2 | G3 F =E2 F2 | %38
w: * to 'scape, my|dear, with- out|me, with- out|me, no, think not|thus a- way to 'scape with- out|me, no,|think not thus a-|
 D2 D2 =E2 B2 | A2 G2 (G2 ^F2) | G2!f! G2 B4 | A4 G4- | G2 F2 (F4- | F2 =ED E4) | F8 | %45
w: way to 'scape, to|'scape, with- out *|me. But run!|You need|* not doubt||me.|
 z2!mf! C2 D2 B,2 | E4 D2 G2- | G2 F4 =E2 | F4 C4 | F8 | =E2 C2 _E4 | D4 z2!mp! D2 | F2 F2 C3 D | %53
w: What now! What!|faint you? Of|* your sweet|feet for-|sak-|en, for- sak-|en? O|well I see you|
 E3 F G2 G2 |"^cresc." D2 =E2 F2 F2 | =E2 E2!f! E3 F | G2 G2 D3 E | F2 F2 C3 D | E2 E2 B,3 C | %59
w: mean to mock me.|Run, or else I|catch you. What? You|halt? O do you|so? A- lack the|while! What! are you|
 D6 =E2 | F4 C2 D2 | =E2 F2 (F2 E2) | F3!mf! G AGAB | c4 z2 C2 | D2 B,2 E4 | D2 B2 A2 G2 | %66
w: down? Fair|maid, then well|o- ver- tak\- *|en! What now! what now fair|maid, What|now! What! faint|you? Of your sweet|
 (GF) F3 (=E/D/ E2) | F4!p! C4 | F8 | =E2 C2 _E4 | D4 z2!mp! D2 | F2 F2 C3 D | E3 F G2 G2 | %73
w: feet * for- sak\- * *|en, for-|sak-|en, for- sak-|en? O|well I see you|mean to mock me,|
"^cresc." D2 =E2 F2 F2 | =E2 E2!f! _E3 F | G2 G2 D3 E | F2 F2 C3 D | E2 E2 B,3 C | D6 =E2 | %79
w: Run, or else I|catch you. What? You|halt? O do you|so? A- lack the|while! what! are you|down? Fair|
 F4 C2 D2 | =E2 F2 (F2 E2) | !fermata!F8 |] %82
w: maid, then well|o- ver- tak\- *|en.|
V:3
 z8 | z8 |!f! B4 ABcA | B2 F2 G2 G2 |[M:2/2][K:treble-8] F2 B2 A2 G2 | B2 F2 c4 | F2!mp! f2 =efge | %7
w: ||Whi- ther a- way, so|fast, tell me my|dear, my white sweet|bon- ny dar-|ling? Whi- ther a- way, so|
 f2 d2 c4 | F2 Bc de f2 | FGAB c2 c2 | B2 F3 G (AB) | c8 | F2!mf! f2 =efge | f2 d2 c2 c2 | %14
w: fast my dear,|whi- ther a- way, so fast,|tell me, ah, my dear, From|your love ap- prov\- *||ed? What haste, I say, what|haste? Tell me, what|
 F2 B2 f4 | B2 F2 G4 | c6 A2 | B (c d2) c4 | F4!f! f2 ed | c2 d2 =e2 f2 | g2 f4 =e2 | f4 f2 _ed | %22
w: haste, what haste.|Tell me, my|dar- ling|dear be\- * lov-|ed. Then will we|try Who fast- er|runs, thou or|I. See then, I|
 c2 d2 e2 dc | BABc dcde | f2 FG AGAB | c4 c4 | B8 | A2 FG ABcd | =e2 f2 (f2 e2) | f4!mf! F4 | %30
w: come! dis- patch thee! I|come, a- way, a- way, a- way, a-|way, lo, I come, I come, I|come! dis-|patch|thee! Haste thee hence a- way, or|else I catch *|thee, I|
 B4 c2 c2 | c2 A2 B>cBA | G2 F2 G4 | F4 B4 | c4 A2 F2 | B2 B2 c4 | F2!p! f2 f2 d2 | e>fed c2 F2 | %38
w: catch thee. Think,|think not thus a- way to|'scape with- out|me, to|'scape thus with-|out, with- out|me, no, think not|thus a- way to 'scape with-|
 B4 c2 G2 | c2 c2 d4 | G4!f! G4 | A4 B4 | c4 d4 | c8 | F4 z2!mf! F2 | A2 F2 B2 G2 | c4 B2 G2 | %47
w: out me, to|'scape wrth- out|me. But|run! You|need not|doubt|me. What|now! What! faint you,|faint you? Of|
 A3 B c4 | F2 f4 e2 | (d2 c2) d4 | c8 | z2!mp! G2 B2 B2 | F3 G A3 B | c2 c2 G3 A | B2 c2 d4 | %55
w: your sweet feet|for- sak- en,|for\- * sak-|en?|O well I|see you mean to|mock me. Run, or|else I catch|
 c4!f! c3 d | e2 e2 B3 c | d2 d2 A3 B | c2 c2 G3 A | B6 AG | F2 G2 A2 B2 | c8 | F8 | %63
w: you. What? You|halt? O do you|so? A- lack the|while! What! are you|down? Pret- ty|maid, well o- ver-|tak-|en!|
 z2!mf! F2 A2 F2 | B2 G2 c4 | B2 G2 A2 B2 | c2 d2 c4 | F2!p! f2 f2 e2 | d2 c2 d4 | c8 | %70
w: What now! What!|faint you, faint|you? Of your sweet|feet for- sak-|en, of your sweet|feet for- sak-|en?|
 z2!mp! G2 B2 B2 | F3 G A3 B | c2 c2 G3 A |"^cresc." B2 c2 d4 | c4!f! c3 d | e2 e2 B3 c | %76
w: O well I|see you mean to|mock me, Run, or|else I catch|you. What? You|halt? O do you|
 d2 d2 A3 B | c2 c2 G3 A | B6 AG | F2 G2 A2 B2 | c8 | !fermata!F8 |] %82
w: so? A- lack the|while! what! are you|down? Pret- ty|maid well o- ver-|tak-|en.|

